icons/numix/48x48/apps/hedgewars.svg

<?xml version="1.0" encoding="UTF-8" standalone="no"?>
<svg
   xmlns:dc="http://purl.org/dc/elements/1.1/"
   xmlns:cc="http://creativecommons.org/ns#"
   xmlns:rdf="http://www.w3.org/1999/02/22-rdf-syntax-ns#"
   xmlns:svg="http://www.w3.org/2000/svg"
   xmlns="http://www.w3.org/2000/svg"
   xmlns:xlink="http://www.w3.org/1999/xlink"
   xmlns:sodipodi="http://sodipodi.sourceforge.net/DTD/sodipodi-0.dtd"
   xmlns:inkscape="http://www.inkscape.org/namespaces/inkscape"
   viewBox="0 0 48 48"
   id="svg14100"
   version="1.1"
   inkscape:version="0.91 r13725"
   width="100%"
   height="100%"
   sodipodi:docname="hedgewars.svg">
  <metadata
     id="metadata14159">
    <rdf:RDF>
      <cc:Work
         rdf:about="">
        <dc:format>image/svg+xml</dc:format>
        <dc:type
           rdf:resource="http://purl.org/dc/dcmitype/StillImage" />
        <dc:title />
      </cc:Work>
    </rdf:RDF>
  </metadata>
  <sodipodi:namedview
     pagecolor="#ffffff"
     bordercolor="#666666"
     borderopacity="1"
     objecttolerance="10"
     gridtolerance="10"
     guidetolerance="10"
     inkscape:pageopacity="0"
     inkscape:pageshadow="2"
     inkscape:window-width="1366"
     inkscape:window-height="713"
     id="namedview14157"
     showgrid="false"
     inkscape:zoom="12.340426"
     inkscape:cx="10.682621"
     inkscape:cy="23.875632"
     inkscape:window-x="0"
     inkscape:window-y="28"
     inkscape:window-maximized="1"
     inkscape:current-layer="svg14100" />
  <defs
     id="defs14102">
    <linearGradient
       id="linearGradient3793">
      <stop
         style="stop-color:#366fc4;stop-opacity:1;"
         offset="0"
         id="stop3795" />
      <stop
         style="stop-color:#5a8ad2;stop-opacity:1;"
         offset="1"
         id="stop3797" />
    </linearGradient>
    <linearGradient
       inkscape:collect="always"
       xlink:href="#linearGradient3793"
       id="linearGradient3799"
       x1="24.715517"
       y1="46.865517"
       x2="24.472412"
       y2="1.0810362"
       gradientUnits="userSpaceOnUse" />
  </defs>
  <g
     id="g14119">
    <path
       d="m 36.31 5 c 5.859 4.062 9.688 10.831 9.688 18.5 c 0 12.426 -10.07 22.5 -22.5 22.5 c -7.669 0 -14.438 -3.828 -18.5 -9.688 c 1.037 1.822 2.306 3.499 3.781 4.969 c 4.085 3.712 9.514 5.969 15.469 5.969 c 12.703 0 23 -10.298 23 -23 c 0 -5.954 -2.256 -11.384 -5.969 -15.469 c -1.469 -1.475 -3.147 -2.744 -4.969 -3.781 z m 4.969 3.781 c 3.854 4.113 6.219 9.637 6.219 15.719 c 0 12.703 -10.297 23 -23 23 c -6.081 0 -11.606 -2.364 -15.719 -6.219 c 4.16 4.144 9.883 6.719 16.219 6.719 c 12.703 0 23 -10.298 23 -23 c 0 -6.335 -2.575 -12.06 -6.719 -16.219 z"
       opacity="0.05"
       id="path14121" />
    <path
       d="m 41.28 8.781 c 3.712 4.085 5.969 9.514 5.969 15.469 c 0 12.703 -10.297 23 -23 23 c -5.954 0 -11.384 -2.256 -15.469 -5.969 c 4.113 3.854 9.637 6.219 15.719 6.219 c 12.703 0 23 -10.298 23 -23 c 0 -6.081 -2.364 -11.606 -6.219 -15.719 z"
       opacity="0.1"
       id="path14123" />
    <path
       d="m 31.25 2.375 c 8.615 3.154 14.75 11.417 14.75 21.13 c 0 12.426 -10.07 22.5 -22.5 22.5 c -9.708 0 -17.971 -6.135 -21.12 -14.75 a 23 23 0 0 0 44.875 -7 a 23 23 0 0 0 -16 -21.875 z"
       opacity="0.2"
       id="path14125" />
  </g>
  <g
     id="g14127"
     style="fill:url(#linearGradient3799);fill-opacity:1">
    <path
       d="m 24 1 c 12.703 0 23 10.297 23 23 c 0 12.703 -10.297 23 -23 23 -12.703 0 -23 -10.297 -23 -23 0 -12.703 10.297 -23 23 -23 z"
       id="path14129"
       style="fill:url(#linearGradient3799);fill-opacity:1"
       fill-opacity="1"
       fill="url(#linearGradient3764)" />
  </g>
  <g
     id="g14131" />
  <g
     id="g14153">
    <path
       d="m 40.03 7.531 c 3.712 4.084 5.969 9.514 5.969 15.469 0 12.703 -10.297 23 -23 23 c -5.954 0 -11.384 -2.256 -15.469 -5.969 4.178 4.291 10.01 6.969 16.469 6.969 c 12.703 0 23 -10.298 23 -23 0 -6.462 -2.677 -12.291 -6.969 -16.469 z"
       opacity="0.1"
       id="path14155" />
  </g>
  <g
     id="g3050"
     transform="translate(1,1)"
     style="fill:#000000;opacity:0.1">
    <path
       style="fill:#000000;stroke:none"
       d="m 16.375,8 3,7.3125 c -0.02505,0.01835 -0.0376,0.04396 -0.0625,0.0625 L 10.125,15.84375 15.15625,20.75 8,23.3125 l 6.46875,2.75 -5.53125,3.03125 6.53125,0.8125 c 0.08945,0.201676 0.181318,0.429247 0.28125,0.625 -0.948604,0.563066 -1.59375,1.578123 -1.59375,2.75 0,1.77795 1.479354,3.21875 3.28125,3.21875 1.054749,0 1.997344,-0.515106 2.59375,-1.28125 0.13894,0.08917 0.263485,0.166459 0.40625,0.25 -0.103151,0.331551 -0.15625,0.696086 -0.15625,1.0625 0,1.915896 1.498026,3.46875 3.375,3.46875 C 24.85238,40 25.894329,39.359661 26.5,38.40625 27.104825,39.364326 28.144133,40 29.34375,40 31.220725,40 32.75,38.447146 32.75,36.53125 c 0,-0.358131 -0.05753,-0.706244 -0.15625,-1.03125 2.160567,-1.253667 3.887884,-3.1565 4.9375,-5.4375 0.112222,0.01993 0.226336,0.0625 0.34375,0.0625 1.171231,0 2.125,-1.040345 2.125,-2.3125 0,-0.97935 -0.581608,-1.823022 -1.375,-2.15625 0.01045,-0.205746 0.03125,-0.41669 0.03125,-0.625 0,-5.693528 -3.961875,-10.441217 -9.28125,-11.71875 z"
       id="path3052"
       inkscape:connector-curvature="0"
       sodipodi:nodetypes="ccccccccccssccsscssccsscscc" />
  </g>
  <g
     id="g3044">
    <path
       id="path3015"
       d="m 16.375,8 3,7.3125 c -0.02505,0.01835 -0.0376,0.04396 -0.0625,0.0625 L 10.125,15.84375 15.15625,20.75 8,23.3125 l 6.46875,2.75 -5.53125,3.03125 6.53125,0.8125 c 0.08945,0.201676 0.181318,0.429247 0.28125,0.625 -0.948604,0.563066 -1.59375,1.578123 -1.59375,2.75 0,1.77795 1.479354,3.21875 3.28125,3.21875 1.054749,0 1.997344,-0.515106 2.59375,-1.28125 0.13894,0.08917 0.263485,0.166459 0.40625,0.25 -0.103151,0.331551 -0.15625,0.696086 -0.15625,1.0625 0,1.915896 1.498026,3.46875 3.375,3.46875 C 24.85238,40 25.894329,39.359661 26.5,38.40625 27.104825,39.364326 28.144133,40 29.34375,40 31.220725,40 32.75,38.447146 32.75,36.53125 c 0,-0.358131 -0.05753,-0.706244 -0.15625,-1.03125 2.160567,-1.253667 3.887884,-3.1565 4.9375,-5.4375 0.112222,0.01993 0.226336,0.0625 0.34375,0.0625 1.171231,0 2.125,-1.040345 2.125,-2.3125 0,-0.97935 -0.581608,-1.823022 -1.375,-2.15625 0.01045,-0.205746 0.03125,-0.41669 0.03125,-0.625 0,-5.693528 -3.961875,-10.441217 -9.28125,-11.71875 L 16.375,8 Z m 13.84375,11.9375 c 0.933441,0 1.77097,0.379016 2.375,1.03125 0.364793,-0.204971 0.774415,-0.34375 1.21875,-0.34375 1.42187,0 2.59375,1.185564 2.59375,2.65625 0,1.470686 -1.17188,2.6875 -2.59375,2.6875 -0.395116,0 -0.759169,-0.116731 -1.09375,-0.28125 -0.609968,0.74929 -1.489358,1.25 -2.5,1.25 -1.836803,0 -3.3125,-1.565566 -3.3125,-3.5 0,-1.934434 1.475697,-3.5 3.3125,-3.5 z"
       style="fill:#ff80e5;stroke:none"
       inkscape:connector-curvature="0" />
    <path
       inkscape:connector-curvature="0"
       id="path3020"
       d="m 29.764158,26.841805 c -1.003355,-0.131664 -1.980172,-0.886051 -2.455968,-1.896723 -0.964599,-2.048976 0.282126,-4.560438 2.436064,-4.90732 0.893982,-0.143972 1.953655,0.164401 2.566099,0.746754 l 0.250835,0.238511 0.437958,-0.173267 c 0.863323,-0.341553 1.88378,-0.111594 2.575838,0.580463 1.285482,1.285483 0.880172,3.498568 -0.78082,4.263455 -0.521893,0.240331 -1.285498,0.272389 -1.753225,0.0736 l -0.315129,-0.133931 -0.396083,0.37049 c -0.71993,0.67341 -1.608325,0.963577 -2.565569,0.837964 z"
       style="fill:#f9f9f9;fill-opacity:1;stroke:none" />
    <ellipse
       transform="translate(7.351724,0.24310344)"
       id="path3022"
       style="fill:#4d4d4d;fill-opacity:1;stroke:none"
       cx="23.5"
       cy="22.960344"
       rx="0.97241378"
       ry="1.0534483" />
    <ellipse
       transform="matrix(0.77127661,0,0,0.80687394,16.015374,4.7445861)"
       id="path3022-6"
       style="fill:#4d4d4d;fill-opacity:1;stroke:none"
       cx="23.5"
       cy="22.960344"
       rx="0.97241378"
       ry="1.0534483" />
  </g>
</svg>

<?xml version="1.0" encoding="UTF-8" standalone="no"?>
<svg
   xmlns:dc="http://purl.org/dc/elements/1.1/"
   xmlns:cc="http://creativecommons.org/ns#"
   xmlns:rdf="http://www.w3.org/1999/02/22-rdf-syntax-ns#"
   xmlns:svg="http://www.w3.org/2000/svg"
   xmlns="http://www.w3.org/2000/svg"
   xmlns:xlink="http://www.w3.org/1999/xlink"
   xmlns:sodipodi="http://sodipodi.sourceforge.net/DTD/sodipodi-0.dtd"
   xmlns:inkscape="http://www.inkscape.org/namespaces/inkscape"
   viewBox="0 0 48 48"
   id="svg14100"
   version="1.1"
   inkscape:version="0.48.5 r10040"
   width="100%"
   height="100%"
   sodipodi:docname="hedgewars.svg">
  <metadata
     id="metadata14159">
    <rdf:RDF>
      <cc:Work
         rdf:about="">
        <dc:format>image/svg+xml</dc:format>
        <dc:type
           rdf:resource="http://purl.org/dc/dcmitype/StillImage" />
        <dc:title />
      </cc:Work>
    </rdf:RDF>
  </metadata>
  <sodipodi:namedview
     pagecolor="#ffffff"
     bordercolor="#666666"
     borderopacity="1"
     objecttolerance="10"
     gridtolerance="10"
     guidetolerance="10"
     inkscape:pageopacity="0"
     inkscape:pageshadow="2"
     inkscape:window-width="1366"
     inkscape:window-height="737"
     id="namedview14157"
     showgrid="false"
     inkscape:zoom="12.340426"
     inkscape:cx="10.682621"
     inkscape:cy="23.875632"
     inkscape:window-x="0"
     inkscape:window-y="0"
     inkscape:window-maximized="1"
     inkscape:current-layer="svg14100" />
  <defs
     id="defs14102">
    <linearGradient
       id="linearGradient3793">
      <stop
         style="stop-color:#366fc4;stop-opacity:1;"
         offset="0"
         id="stop3795" />
      <stop
         style="stop-color:#5a8ad2;stop-opacity:1;"
         offset="1"
         id="stop3797" />
    </linearGradient>
    <linearGradient
       id="linearGradient3764"
       x1="1"
       x2="47"
       gradientUnits="userSpaceOnUse"
       gradientTransform="matrix(0,-1,1,0,-1.5e-6,47.999998)">
      <stop
         stop-color="#b93b3b"
         stop-opacity="1"
         id="stop14105" />
      <stop
         offset="1"
         stop-color="#c34545"
         stop-opacity="1"
         id="stop14107" />
    </linearGradient>
    <clipPath
       id="clipPath-887079119">
      <g
         transform="translate(0,-1004.3622)"
         id="g14110">
        <path
           d="m -24 13 c 0 1.105 -0.672 2 -1.5 2 -0.828 0 -1.5 -0.895 -1.5 -2 0 -1.105 0.672 -2 1.5 -2 0.828 0 1.5 0.895 1.5 2 z"
           transform="matrix(15.333333,0,0,11.5,414.99999,878.8622)"
           fill="#1890d0"
           id="path14112" />
      </g>
    </clipPath>
    <clipPath
       id="clipPath-898578971">
      <g
         transform="translate(0,-1004.3622)"
         id="g14115">
        <path
           d="m -24 13 c 0 1.105 -0.672 2 -1.5 2 -0.828 0 -1.5 -0.895 -1.5 -2 0 -1.105 0.672 -2 1.5 -2 0.828 0 1.5 0.895 1.5 2 z"
           transform="matrix(15.333333,0,0,11.5,414.99999,878.8622)"
           fill="#1890d0"
           id="path14117" />
      </g>
    </clipPath>
    <linearGradient
       inkscape:collect="always"
       xlink:href="#linearGradient3793"
       id="linearGradient3799"
       x1="24.715517"
       y1="46.865517"
       x2="24.472412"
       y2="1.0810362"
       gradientUnits="userSpaceOnUse" />
  </defs>
  <g
     id="g14119">
    <path
       d="m 36.31 5 c 5.859 4.062 9.688 10.831 9.688 18.5 c 0 12.426 -10.07 22.5 -22.5 22.5 c -7.669 0 -14.438 -3.828 -18.5 -9.688 c 1.037 1.822 2.306 3.499 3.781 4.969 c 4.085 3.712 9.514 5.969 15.469 5.969 c 12.703 0 23 -10.298 23 -23 c 0 -5.954 -2.256 -11.384 -5.969 -15.469 c -1.469 -1.475 -3.147 -2.744 -4.969 -3.781 z m 4.969 3.781 c 3.854 4.113 6.219 9.637 6.219 15.719 c 0 12.703 -10.297 23 -23 23 c -6.081 0 -11.606 -2.364 -15.719 -6.219 c 4.16 4.144 9.883 6.719 16.219 6.719 c 12.703 0 23 -10.298 23 -23 c 0 -6.335 -2.575 -12.06 -6.719 -16.219 z"
       opacity="0.05"
       id="path14121" />
    <path
       d="m 41.28 8.781 c 3.712 4.085 5.969 9.514 5.969 15.469 c 0 12.703 -10.297 23 -23 23 c -5.954 0 -11.384 -2.256 -15.469 -5.969 c 4.113 3.854 9.637 6.219 15.719 6.219 c 12.703 0 23 -10.298 23 -23 c 0 -6.081 -2.364 -11.606 -6.219 -15.719 z"
       opacity="0.1"
       id="path14123" />
    <path
       d="m 31.25 2.375 c 8.615 3.154 14.75 11.417 14.75 21.13 c 0 12.426 -10.07 22.5 -22.5 22.5 c -9.708 0 -17.971 -6.135 -21.12 -14.75 a 23 23 0 0 0 44.875 -7 a 23 23 0 0 0 -16 -21.875 z"
       opacity="0.2"
       id="path14125" />
  </g>
  <g
     id="g14127"
     style="fill:url(#linearGradient3799);fill-opacity:1">
    <path
       d="m 24 1 c 12.703 0 23 10.297 23 23 c 0 12.703 -10.297 23 -23 23 -12.703 0 -23 -10.297 -23 -23 0 -12.703 10.297 -23 23 -23 z"
       id="path14129"
       style="fill:url(#linearGradient3799);fill-opacity:1"
       fill-opacity="1"
       fill="url(#linearGradient3764)" />
  </g>
  <g
     id="g14131" />
  <g
     id="g14153">
    <path
       d="m 40.03 7.531 c 3.712 4.084 5.969 9.514 5.969 15.469 0 12.703 -10.297 23 -23 23 c -5.954 0 -11.384 -2.256 -15.469 -5.969 4.178 4.291 10.01 6.969 16.469 6.969 c 12.703 0 23 -10.298 23 -23 0 -6.462 -2.677 -12.291 -6.969 -16.469 z"
       opacity="0.1"
       id="path14155" />
  </g>
  <g
     id="g3050"
     transform="translate(1,1)"
     style="fill:#000000;opacity:0.1">
    <path
       style="fill:#000000;stroke:none"
       d="m 16.375,8 3,7.3125 c -0.02505,0.01835 -0.0376,0.04396 -0.0625,0.0625 L 10.125,15.84375 15.15625,20.75 8,23.3125 l 6.46875,2.75 -5.53125,3.03125 6.53125,0.8125 c 0.08945,0.201676 0.181318,0.429247 0.28125,0.625 -0.948604,0.563066 -1.59375,1.578123 -1.59375,2.75 0,1.77795 1.479354,3.21875 3.28125,3.21875 1.054749,0 1.997344,-0.515106 2.59375,-1.28125 0.13894,0.08917 0.263485,0.166459 0.40625,0.25 -0.103151,0.331551 -0.15625,0.696086 -0.15625,1.0625 0,1.915896 1.498026,3.46875 3.375,3.46875 C 24.85238,40 25.894329,39.359661 26.5,38.40625 27.104825,39.364326 28.144133,40 29.34375,40 31.220725,40 32.75,38.447146 32.75,36.53125 c 0,-0.358131 -0.05753,-0.706244 -0.15625,-1.03125 2.160567,-1.253667 3.887884,-3.1565 4.9375,-5.4375 0.112222,0.01993 0.226336,0.0625 0.34375,0.0625 1.171231,0 2.125,-1.040345 2.125,-2.3125 0,-0.97935 -0.581608,-1.823022 -1.375,-2.15625 0.01045,-0.205746 0.03125,-0.41669 0.03125,-0.625 0,-5.693528 -3.961875,-10.441217 -9.28125,-11.71875 L 16.375,8 z m 13.84375,11.9375 c 0.933441,0 1.77097,0.379016 2.375,1.03125 0.364793,-0.204971 0.774415,-0.34375 1.21875,-0.34375 1.42187,0 2.59375,1.185564 2.59375,2.65625 0,1.470686 -1.17188,2.6875 -2.59375,2.6875 -0.395116,0 -0.759169,-0.116731 -1.09375,-0.28125 -0.609968,0.74929 -1.489358,1.25 -2.5,1.25 -1.836803,0 -3.3125,-1.565566 -3.3125,-3.5 0,-1.934434 1.475697,-3.5 3.3125,-3.5 z"
       id="path3052"
       inkscape:connector-curvature="0" />
    <path
       style="fill:#000000;fill-opacity:1;stroke:none"
       d="m 29.764158,26.841805 c -1.003355,-0.131664 -1.980172,-0.886051 -2.455968,-1.896723 -0.964599,-2.048976 0.282126,-4.560438 2.436064,-4.90732 0.893982,-0.143972 1.953655,0.164401 2.566099,0.746754 l 0.250835,0.238511 0.437958,-0.173267 c 0.863323,-0.341553 1.88378,-0.111594 2.575838,0.580463 1.285482,1.285483 0.880172,3.498568 -0.78082,4.263455 -0.521893,0.240331 -1.285498,0.272389 -1.753225,0.0736 l -0.315129,-0.133931 -0.396083,0.37049 c -0.71993,0.67341 -1.608325,0.963577 -2.565569,0.837964 z"
       id="path3054"
       inkscape:connector-curvature="0" />
    <path
       sodipodi:type="arc"
       style="fill:#000000;fill-opacity:1;stroke:none"
       id="path3056"
       sodipodi:cx="23.5"
       sodipodi:cy="22.960344"
       sodipodi:rx="0.97241378"
       sodipodi:ry="1.0534483"
       d="m 24.472414,22.960344 c 0,0.581804 -0.435365,1.053449 -0.972414,1.053449 -0.537049,0 -0.972414,-0.471645 -0.972414,-1.053449 0,-0.581803 0.435365,-1.053448 0.972414,-1.053448 0.537049,0 0.972414,0.471645 0.972414,1.053448 z"
       transform="translate(7.351724,0.24310344)" />
    <path
       sodipodi:type="arc"
       style="fill:#000000;fill-opacity:1;stroke:none"
       id="path3058"
       sodipodi:cx="23.5"
       sodipodi:cy="22.960344"
       sodipodi:rx="0.97241378"
       sodipodi:ry="1.0534483"
       d="m 24.472414,22.960344 c 0,0.581804 -0.435365,1.053449 -0.972414,1.053449 -0.537049,0 -0.972414,-0.471645 -0.972414,-1.053449 0,-0.581803 0.435365,-1.053448 0.972414,-1.053448 0.537049,0 0.972414,0.471645 0.972414,1.053448 z"
       transform="matrix(0.77127661,0,0,0.80687394,16.015374,4.7445861)" />
  </g>
  <g
     id="g3044">
    <path
       id="path3015"
       d="M 16.375 8 L 19.375 15.3125 C 19.34995 15.33085 19.3374 15.35646 19.3125 15.375 L 10.125 15.84375 L 15.15625 20.75 L 8 23.3125 L 14.46875 26.0625 L 8.9375 29.09375 L 15.46875 29.90625 C 15.5582 30.107926 15.650068 30.335497 15.75 30.53125 C 14.801396 31.094316 14.15625 32.109373 14.15625 33.28125 C 14.15625 35.0592 15.635604 36.5 17.4375 36.5 C 18.492249 36.5 19.434844 35.984894 20.03125 35.21875 C 20.17019 35.30792 20.294735 35.385209 20.4375 35.46875 C 20.334349 35.800301 20.28125 36.164836 20.28125 36.53125 C 20.28125 38.447146 21.779276 40 23.65625 40 C 24.85238 40 25.894329 39.359661 26.5 38.40625 C 27.104825 39.364326 28.144133 40 29.34375 40 C 31.220725 40 32.75 38.447146 32.75 36.53125 C 32.75 36.173119 32.692469 35.825006 32.59375 35.5 C 34.754317 34.246333 36.481634 32.3435 37.53125 30.0625 C 37.643472 30.08243 37.757586 30.125 37.875 30.125 C 39.046231 30.125 40 29.084655 40 27.8125 C 40 26.83315 39.418392 25.989478 38.625 25.65625 C 38.63545 25.450504 38.65625 25.23956 38.65625 25.03125 C 38.65625 19.337722 34.694375 14.590033 29.375 13.3125 L 16.375 8 z M 30.21875 19.9375 C 31.152191 19.9375 31.98972 20.316516 32.59375 20.96875 C 32.958543 20.763779 33.368165 20.625 33.8125 20.625 C 35.23437 20.625 36.40625 21.810564 36.40625 23.28125 C 36.40625 24.751936 35.23437 25.96875 33.8125 25.96875 C 33.417384 25.96875 33.053331 25.852019 32.71875 25.6875 C 32.108782 26.43679 31.229392 26.9375 30.21875 26.9375 C 28.381947 26.9375 26.90625 25.371934 26.90625 23.4375 C 26.90625 21.503066 28.381947 19.9375 30.21875 19.9375 z "
       style="fill:#ff80e5;stroke:none" />
    <path
       inkscape:connector-curvature="0"
       id="path3020"
       d="m 29.764158,26.841805 c -1.003355,-0.131664 -1.980172,-0.886051 -2.455968,-1.896723 -0.964599,-2.048976 0.282126,-4.560438 2.436064,-4.90732 0.893982,-0.143972 1.953655,0.164401 2.566099,0.746754 l 0.250835,0.238511 0.437958,-0.173267 c 0.863323,-0.341553 1.88378,-0.111594 2.575838,0.580463 1.285482,1.285483 0.880172,3.498568 -0.78082,4.263455 -0.521893,0.240331 -1.285498,0.272389 -1.753225,0.0736 l -0.315129,-0.133931 -0.396083,0.37049 c -0.71993,0.67341 -1.608325,0.963577 -2.565569,0.837964 z"
       style="fill:#f9f9f9;fill-opacity:1;stroke:none" />
    <path
       transform="translate(7.351724,0.24310344)"
       d="m 24.472414,22.960344 a 0.97241378,1.0534483 0 1 1 -1.944828,0 0.97241378,1.0534483 0 1 1 1.944828,0 z"
       sodipodi:ry="1.0534483"
       sodipodi:rx="0.97241378"
       sodipodi:cy="22.960344"
       sodipodi:cx="23.5"
       id="path3022"
       style="fill:#4d4d4d;fill-opacity:1;stroke:none"
       sodipodi:type="arc" />
    <path
       transform="matrix(0.77127661,0,0,0.80687394,16.015374,4.7445861)"
       d="m 24.472414,22.960344 a 0.97241378,1.0534483 0 1 1 -1.944828,0 0.97241378,1.0534483 0 1 1 1.944828,0 z"
       sodipodi:ry="1.0534483"
       sodipodi:rx="0.97241378"
       sodipodi:cy="22.960344"
       sodipodi:cx="23.5"
       id="path3022-6"
       style="fill:#4d4d4d;fill-opacity:1;stroke:none"
       sodipodi:type="arc" />
  </g>
</svg>
